docs/.gitbook/assets/icon-tray-16@dark.svg

<svg width="32" height="32" viewBox="0 0 16 16" fill="none" xmlns="http://www.w3.org/2000/svg">
<rect x="0" y="0" width="16" height="16" fill="#181c1f"/>
<path fill-rule="evenodd" clip-rule="evenodd" d="M2.57451 2.84657C2.95906 1.74099 4.00132 1 5.17188 1H10.8281C11.9987 1 13.0409 1.74099 13.4255 2.84657L13.4296 2.85844L13.4295 2.85847L14.9624 7.51551C14.9873 7.59118 15 7.67034 15 7.75V12.25C15 13.7688 13.7688 15 12.25 15H3.75C2.23122 15 1 13.7688 1 12.25V7.75C1 7.67034 1.01269 7.59118 1.0376 7.51551L2.57048 2.85847L2.57441 2.84653L2.57451 2.84657ZM3.99309 3.33411L2.78645 7H5C5.35614 7 5.66295 7.25041 5.73462 7.59887L5.73661 7.60765C5.73897 7.61778 5.74338 7.63593 5.75018 7.66096C5.76381 7.71119 5.78673 7.78802 5.82134 7.88243C5.89139 8.07348 6.00481 8.32402 6.17692 8.5699C6.50914 9.0445 7.05009 9.5 8 9.5C8.94991 9.5 9.49086 9.0445 9.82308 8.5699C9.99519 8.32402 10.1086 8.07348 10.1787 7.88243C10.2133 7.78802 10.2362 7.71119 10.2498 7.66096C10.2566 7.63593 10.261 7.61778 10.2634 7.60765L10.2653 7.59913L10.265 7.60059L10.2648 7.60164L10.2647 7.60225C10.2649 7.60112 10.2652 7.59998 10.2654 7.59885C10.3371 7.2504 10.6439 7 11 7H13.2136L12.0069 3.3341C11.8306 2.83447 11.3583 2.5 10.8281 2.5H5.17188C4.64166 2.5 4.16935 2.83447 3.99309 3.33411ZM13.5 8.5H11.5485C11.4446 8.76411 11.2863 9.09529 11.0519 9.4301C10.5091 10.2055 9.55009 11 8 11C6.44991 11 5.49086 10.2055 4.94808 9.4301C4.71371 9.09529 4.55542 8.76411 4.45149 8.5H2.5V12.25C2.5 12.9404 3.05964 13.5 3.75 13.5H12.25C12.9404 13.5 13.5 12.9404 13.5 12.25V8.5Z" fill="#fff"/>
</svg>

<svg xmlns="http://www.w3.org/2000/svg" width="32" height="32" fill="none" viewBox="0 0 16 16"><path fill="#181c1f" d="M0 0h16v16H0z"/><path fill="#fff" fill-rule="evenodd" d="M2.575 2.847A2.75 2.75 0 0 1 5.172 1h5.656a2.75 2.75 0 0 1 2.598 1.847l.004.011 1.532 4.658A.8.8 0 0 1 15 7.75v4.5A2.75 2.75 0 0 1 12.25 15h-8.5A2.75 2.75 0 0 1 1 12.25v-4.5a.8.8 0 0 1 .038-.234L2.57 2.858zm1.418.487L2.786 7H5a.75.75 0 0 1 .735.599l.002.009.013.053a3 3 0 0 0 .427.909c.332.474.873.93 1.823.93s1.49-.456 1.823-.93a3 3 0 0 0 .44-.962l.002-.009v.003V7.6A.75.75 0 0 1 11 7h2.214l-1.207-3.666a1.25 1.25 0 0 0-1.179-.834H5.172a1.25 1.25 0 0 0-1.179.834M13.5 8.5h-1.951a4.5 4.5 0 0 1-.497.93C10.509 10.206 9.55 11 8 11s-2.51-.794-3.052-1.57a4.5 4.5 0 0 1-.497-.93H2.5v3.75c0 .69.56 1.25 1.25 1.25h8.5c.69 0 1.25-.56 1.25-1.25z" clip-rule="evenodd"/></svg>
